assets/img/braze_icons/camera-off.svg

<svg fill="none" height="24" viewBox="0 0 24 24" width="24" xmlns="http://www.w3.org/2000/svg"><g fill="#801ed7"><path clip-rule="evenodd" d="m2.70711 1.29289c-.39053-.390521-1.02369-.390521-1.41422 0-.390521.39053-.390521 1.02369 0 1.41422l20.00001 19.99999c.3905.3905 1.0237.3905 1.4142 0s.3905-1.0237 0-1.4142l-.6791-.6792c.6048-.7004.972-1.6146.972-2.6137v-9.67467c.0001-.29977.0001-.52187-.0195-.71971-.188-1.89725-1.6889-3.39814-3.5861-3.58612-.1979-.01961-.4293-.01956-.7441-.0195l-.0559.00001c-.1568 0-.1907-.00046-.2133-.00183-.3856-.02336-.7233-.26673-.8674-.62517-.0086-.02127-.0186-.05006-.065-.18923l-.0074-.02222c-.0348-.10455-.0651-.19551-.0993-.28055-.4323-1.07532-1.4453-1.80545-2.6022-1.87552-.0915-.005537-.1873-.005513-.2975-.00549h-4.88458c-.1102-.000023-.20607-.000047-.29756.00549-1.15684.07007-2.16985.8002-2.60214 1.87552-.03418.08502-.06447.17596-.09928.28048l-.03308.09926c-.01943.05829-.02355.07039-.02681.07942-.1401.38729-.50331.64908-.91503.65952-.00792.0002-.018.00029-.05576.00031h-.11385zm13.79289 10.70711c0 .8805-.2529 1.702-.6901 2.3957l-6.20565-6.20565c.69375-.43714 1.51515-.69005 2.39575-.69005 2.4853 0 4.5 2.01472 4.5 4.5z" fill-rule="evenodd"/><path d="m1.6191 5.86174c-.32496.5133-.53642 1.10615-.5996 1.74377-.0196.19787-.019555.41991-.01949.71974v7.91595c-.00001.805-.00002 1.4693.0442 2.0105.04592.5621.14449 1.0788.39178 1.5642.38349.7526.99541 1.3645 1.74806 1.748.48534.2473 1.00204.3459 1.56414.3918.54119.0442 1.20554.0442 2.0105.0442h10.48261c.1787 0 .3505 0 .5155-.0005l-5.5072-5.5072c-.0826.0051-.1658.0077-.2496.0077-2.20914 0-4-1.7909-4-4 0-.0838.00258-.1671.00766-.2496z"/></g></svg>

<svg width="24" height="24" viewBox="0 0 24 24" fill="none" xmlns="http://www.w3.org/2000/svg">
<path fill-rule="evenodd" clip-rule="evenodd" d="M2.70711 1.29289C2.31658 0.902369 1.68342 0.902369 1.29289 1.29289C0.902369 1.68342 0.902369 2.31658 1.29289 2.70711L21.2929 22.7071C21.6834 23.0976 22.3166 23.0976 22.7071 22.7071C23.0976 22.3166 23.0976 21.6834 22.7071 21.2929L22.028 20.6137C22.6328 19.9133 23 18.9991 23 18L23 8.32533C23.0001 8.02556 23.0001 7.80346 22.9805 7.60562C22.7925 5.70837 21.2916 4.20748 19.3944 4.0195C19.1965 3.99989 18.9651 3.99994 18.6503 4L18.5944 4.00001C18.4376 4.00001 18.4037 3.99955 18.3811 3.99818C17.9955 3.97482 17.6578 3.73145 17.5137 3.37301C17.5051 3.35174 17.4951 3.32295 17.4487 3.18378L17.4413 3.16156C17.4065 3.05701 17.3762 2.96605 17.342 2.88101C16.9097 1.80569 15.8967 1.07556 14.7398 1.00549C14.6483 0.999953 14.5525 0.999977 14.4423 1H9.55772C9.44752 0.999977 9.35165 0.999953 9.26016 1.00549C8.10332 1.07556 7.09031 1.80569 6.65802 2.88101C6.62384 2.96603 6.59355 3.05697 6.55874 3.16149L6.52566 3.26075C6.50623 3.31904 6.50211 3.33114 6.49885 3.34017C6.35875 3.72746 5.99554 3.98925 5.58382 3.99969C5.5759 3.99989 5.56582 3.99998 5.52806 4H5.41421L2.70711 1.29289ZM16.5 12C16.5 12.8805 16.2471 13.702 15.8099 14.3957L9.60425 8.19005C10.298 7.75291 11.1194 7.5 12 7.5C14.4853 7.5 16.5 9.51472 16.5 12Z" fill="#801ED7"/>
<path d="M1.6191 5.86174C1.29414 6.37504 1.08268 6.96789 1.0195 7.60551C0.9999 7.80338 0.999945 8.02542 1.00001 8.32525L1.00001 16.2412C1 17.0462 0.99999 17.7105 1.04421 18.2517C1.09013 18.8138 1.1887 19.3305 1.43599 19.8159C1.81948 20.5685 2.4314 21.1804 3.18405 21.5639C3.66939 21.8112 4.18609 21.9098 4.74819 21.9557C5.28938 21.9999 5.95373 21.9999 6.75869 21.9999H17.2413C17.42 21.9999 17.5918 21.9999 17.7568 21.9994L12.2496 16.4922C12.167 16.4973 12.0838 16.4999 12 16.4999C9.79086 16.4999 8 14.709 8 12.4999C8 12.4161 8.00258 12.3328 8.00766 12.2503L1.6191 5.86174Z" fill="#801ED7"/>
</svg>
